X: 40263
T: To Limerick We Go
R: slip jig
M: 9/8
K: Dmajor
|:faf ede fdd|faf def g2e|faf ede fdd|gfe fdB B3:|
|:ABd ~e3 e2f|edB ~d3 d2B|ABd ~e3 e2f|~f2e edB B3:|

